X: 1984
T: Yeniden Eski Muhabbetleri...
C: İsmail Baha Sürelsan
O: Turkey
F: http://compmusic.upf.edu/node/140
N: mahur--sarki--aksak--yeniden_eski--ismail_baha_surelsan
N: makam= mahur
N: form= sarki
N: usul= aksak = 9/8
M: 9/8
L: 1/16
K: C ^9/8f   
Q: 1/4=126
%%MIDI tuningsystem comma53
g4 d2gb a3g f3d ef | d2 efg3/2f/ gbag fedc Bcg=f  | 
w:  ARANAĞME  |   | 
=fedc .e2.e2 dcBc d3e dc | B3/2A/ GAB3/2A/ GFG4de fgef  | 
w:   |   | 
g4 d2gb a3g f3d ef | d2 efg3/2f/ gbag fedc Bcg=f  | 
w:  ARANAĞME  |   | 
=fedc .e2.e2 dcBc d3e dc | B3/2A/ GAB3/2A/ GFG4g3/2f/ edef  | 
w:   |   | 
G4 g2g2 g4 d2eg f2 | g4g2 gba3gf3ded  | \
w:  *  Ye ni den  es  |  *  ki  mu *  hab *  bet  | 
d4 c'2c'b b3a a4 b2 | 
w:  *  le ri  *  tec *  did   | 
g3ab3/2a/ gfg4=fe dcBA  | G4 g2g2 g4 d2eg f2 | 
w:  *  *  *  *  e de lim   SAZ  |  *  Ye ni den  es  | 
g4g2 gba3gf3ded  | d4 c'2c'b b3a a4 b2 | \
w:  *  ki  mu *  hab *  bet  |  *  le ri  *  tec *  did   | 
g3ab3/2a/ gfg4g3/2f/ edef  | 
w:  *  *  *  *  e de lim   SAZ  | 
g4 g3f e3f d2b2 ag | g3fe2 (3fefd4g4=fe  | \
w:  *  Gel  be nim  *  kâ  |  *  *  şı  hi *  *  lâ lim   | 
eddc .e2.e2 d3/2c/Bc d4 c2 | 
w:  *  *  *  *  bi ze  bir  *  *  *  id   | 
B3/2A/ GAB3/2A/ GFG4g3/2f/ edef  | \
w:  *  *  *  *  *  *  e de lim   SAZ  | 
g4 g3f e3f d2b2 ag | 
w:  *  Gel  be nim  *  kâ  | 
g3fe2 (3fefd4g4=fe  | eddc .e2.e2 d3/2c/Bc d4 c2 | 
w:  *  *  şı  hi *  *  lâ lim   |  *  *  *  *  bi ze  bir  *  *  *  id   | 
B3/2A/ GAB3/2A/ GFG4ba bgfg  | e4 b2b2 g4 f4 a2 | 
w:  *  *  *  *  *  *  e de lim   SAZ  |  *  Se ni  bir  câ  | 
g3fb2 gfe2 ^dcB4cd  | e4 g2^f_7/8a g4 g2a2 ag | \
w:  *  *  mı  mu *  saf *  *  fâ   |  *  i le  *  hur şid   | 
^f3_7/8ag3/2f/ efg4g=a baga  | 
w:  *  *  *  *  e de lim   SAZ  | 
b4 g2a2 b4 b4 c'2 | c'3c'e'2 e'd'd'c' bd'c'4a2  | \
w:  *  Se ni  bir  câ  |  *  *  mı  mu *  saf *  *  *  fâ   | 
b4 a2g2 f2ed g4 a2 | 
w:  *  i le  hur *  *  şid   | 
b3ab3/2a/ gfg4g3/2f/ edef  | g4 g3f e3f d2b2 ag | 
w:  *  *  *  *  e de lim   SAZ  |  *  Gel  be nim  *  kâ  | 
g3fe2 (3fefd4g4=fe  | eddc .e2.e2 d3/2c/Bc d4 c2 | 
w:  *  *  şı  hi *  *  lâ lim   |  *  *  *  *  bi ze  bir  *  *  *  id   | 
B3/2A/ GAB3/2A/ GFG6 z4  | |


